X: 233
T:Lady Madelina Gordon's Reel
B:William Marshall's Scottish Airs, Melodies, Strathspeys, Reels &c (1822)
C:William Marshall
L:1/8
M:C|
O:Scotland
R:Reel
Z:Clark Bernst + Richard Robinson
%%Page:54 - 3
F:http://richardrobinson.tunebook.org.uk/tune/4076
%%TBL:{"version":1,"type":"tune","id":"4076"}
K:F
%%staves {1 2}
V:1
(CF)(AF) (CG)(BG) | (CF)(AF) (E/F/G) (EC) | (CF)(AF) (CG)(BG) | cABG F/F/F F2 :|
(f/g/a) (fc) dBcA | BGAF (E/F/G) (EC) | FcAc FdBd | cfeg f/f/f (fg |
a)fge fcdB | cABG (E/F/G) (EC) | (CF)(AF) (CG)(BG) | cABG F/F/F F2 |]
V:2 middle=d clef=bass
L:1/4
ffcc | ffcc | ffcc | fcFF :| \
ffba | gfcc | ffbb | c'cff | fbab | fBcc | ffcc | fcFF |]

